svgs/snapchat.svg

<?xml version="1.0" encoding="UTF-8" standalone="no"?>
<svg
   width="24"
   height="24"
   viewBox="0 0 24 24"
   fill="none"
   version="1.1"
   id="svg4"
   sodipodi:docname="snapchat.svg"
   inkscape:version="1.1.1 (3bf5ae0d25, 2021-09-20)"
   xmlns:inkscape="http://www.inkscape.org/namespaces/inkscape"
   xmlns:sodipodi="http://sodipodi.sourceforge.net/DTD/sodipodi-0.dtd"
   xmlns="http://www.w3.org/2000/svg"
   xmlns:svg="http://www.w3.org/2000/svg">
  <defs
     id="defs8">
    <inkscape:path-effect
       effect="simplify"
       id="path-effect3634"
       is_visible="true"
       lpeversion="1"
       steps="1"
       threshold="0.000408163"
       smooth_angles="360"
       helper_size="0"
       simplify_individual_paths="false"
       simplify_just_coalesce="false" />
    <inkscape:path-effect
       effect="simplify"
       id="path-effect3630"
       is_visible="true"
       lpeversion="1"
       steps="1"
       threshold="0.000408163"
       smooth_angles="360"
       helper_size="0"
       simplify_individual_paths="false"
       simplify_just_coalesce="false" />
    <inkscape:path-effect
       effect="simplify"
       id="path-effect3626"
       is_visible="true"
       lpeversion="1"
       steps="1"
       threshold="0.000408163"
       smooth_angles="360"
       helper_size="0"
       simplify_individual_paths="false"
       simplify_just_coalesce="false" />
    <inkscape:path-effect
       effect="simplify"
       id="path-effect3622"
       is_visible="true"
       lpeversion="1"
       steps="1"
       threshold="0.000408163"
       smooth_angles="360"
       helper_size="0"
       simplify_individual_paths="false"
       simplify_just_coalesce="false" />
    <inkscape:path-effect
       effect="simplify"
       id="path-effect3618"
       is_visible="true"
       lpeversion="1"
       steps="1"
       threshold="0.000408163"
       smooth_angles="360"
       helper_size="0"
       simplify_individual_paths="false"
       simplify_just_coalesce="false" />
    <inkscape:path-effect
       effect="simplify"
       id="path-effect3614"
       is_visible="true"
       lpeversion="1"
       steps="1"
       threshold="0.000408163"
       smooth_angles="360"
       helper_size="0"
       simplify_individual_paths="false"
       simplify_just_coalesce="false" />
    <inkscape:path-effect
       effect="simplify"
       id="path-effect3610"
       is_visible="true"
       lpeversion="1"
       steps="1"
       threshold="0.000408163"
       smooth_angles="360"
       helper_size="0"
       simplify_individual_paths="false"
       simplify_just_coalesce="false" />
    <inkscape:path-effect
       effect="simplify"
       id="path-effect3606"
       is_visible="true"
       lpeversion="1"
       steps="1"
       threshold="0.000408163"
       smooth_angles="360"
       helper_size="0"
       simplify_individual_paths="false"
       simplify_just_coalesce="false" />
    <inkscape:path-effect
       effect="simplify"
       id="path-effect3602"
       is_visible="true"
       lpeversion="1"
       steps="1"
       threshold="0.000408163"
       smooth_angles="360"
       helper_size="0"
       simplify_individual_paths="false"
       simplify_just_coalesce="false" />
    <inkscape:path-effect
       effect="simplify"
       id="path-effect3598"
       is_visible="true"
       lpeversion="1"
       steps="1"
       threshold="0.000408163"
       smooth_angles="360"
       helper_size="0"
       simplify_individual_paths="false"
       simplify_just_coalesce="false" />
    <inkscape:path-effect
       effect="simplify"
       id="path-effect3594"
       is_visible="true"
       lpeversion="1"
       steps="1"
       threshold="0.000408163"
       smooth_angles="360"
       helper_size="0"
       simplify_individual_paths="false"
       simplify_just_coalesce="false" />
    <inkscape:path-effect
       effect="simplify"
       id="path-effect3590"
       is_visible="true"
       lpeversion="1"
       steps="1"
       threshold="0.000408163"
       smooth_angles="360"
       helper_size="0"
       simplify_individual_paths="false"
       simplify_just_coalesce="false" />
    <inkscape:path-effect
       effect="simplify"
       id="path-effect3586"
       is_visible="true"
       lpeversion="1"
       steps="1"
       threshold="0.000408163"
       smooth_angles="360"
       helper_size="0"
       simplify_individual_paths="false"
       simplify_just_coalesce="false" />
    <inkscape:path-effect
       effect="simplify"
       id="path-effect3582"
       is_visible="true"
       lpeversion="1"
       steps="1"
       threshold="0.000408163"
       smooth_angles="360"
       helper_size="0"
       simplify_individual_paths="false"
       simplify_just_coalesce="false" />
    <inkscape:path-effect
       effect="simplify"
       id="path-effect3578"
       is_visible="true"
       lpeversion="1"
       steps="1"
       threshold="0.000408163"
       smooth_angles="360"
       helper_size="0"
       simplify_individual_paths="false"
       simplify_just_coalesce="false" />
  </defs>
  <sodipodi:namedview
     id="namedview6"
     pagecolor="#ffffff"
     bordercolor="#666666"
     borderopacity="1.0"
     inkscape:pageshadow="2"
     inkscape:pageopacity="0.0"
     inkscape:pagecheckerboard="0"
     showgrid="false"
     inkscape:zoom="16"
     inkscape:cx="4.34375"
     inkscape:cy="17.40625"
     inkscape:window-width="1920"
     inkscape:window-height="1009"
     inkscape:window-x="-8"
     inkscape:window-y="-8"
     inkscape:window-maximized="1"
     inkscape:current-layer="svg4" />
  <path
     style="display:inline;fill:#000000;fill-opacity:1;stroke:none;stroke-width:0.0971193;stroke-linecap:round;stroke-miterlimit:0;stroke-opacity:0.664336"
     d="M 11.989029,2.1127251 C 10.394038,2.1012054 8.7697469,2.719429 7.7182448,3.9455677 6.7856351,4.9350181 6.4334925,6.3374547 6.480353,7.6692023 6.476363,8.3530889 6.484723,9.0369691 6.487183,9.7208482 5.8335304,9.5581722 5.170638,9.1029684 4.4786909,9.3283872 3.8890674,9.5037512 3.643044,10.275479 3.9991643,10.770286 c 0.3834359,0.502501 0.9794781,0.789162 1.4774656,1.163819 0.2447836,0.200285 0.5750052,0.343425 0.7572272,0.601021 -1.599e-4,0.617315 -0.3233026,1.188824 -0.6296632,1.708409 -0.7461693,1.17608 -1.9121396,2.075148 -3.1605511,2.696294 -0.3187102,0.138329 -0.6121586,0.553675 -0.3297694,0.868383 0.5149177,0.483925 1.2435957,0.638455 1.8926887,0.866581 0.2728861,0.08559 0.6771003,0.179119 0.6514771,0.545728 0.044646,0.390508 0.2939155,0.81053 0.7322835,0.812141 1.0496144,0.121628 2.1717574,0.06975 3.1126552,0.633456 0.92227,0.535251 1.8715721,1.132116 2.9672691,1.19713 1.091714,0.102582 2.216433,-0.118629 3.152314,-0.702094 0.697322,-0.38529 1.376983,-0.865493 2.194066,-0.943461 0.687422,-0.161127 1.427037,-0.02014 2.091396,-0.276839 0.425664,-0.182643 0.368277,-0.700647 0.547149,-1.043274 0.337677,-0.233413 0.769334,-0.260343 1.145421,-0.414464 0.491488,-0.196385 1.111247,-0.347251 1.369059,-0.856813 0.153077,-0.405921 -0.308326,-0.627845 -0.593812,-0.785775 -1.517366,-0.784771 -2.884046,-1.993631 -3.482784,-3.633011 -0.06607,-0.258729 -0.303829,-0.645939 0.01115,-0.835805 0.660488,-0.557921 1.521835,-0.878487 2.068528,-1.565291 0.413849,-0.518924 0.125589,-1.4096828 -0.552082,-1.5128418 -0.657048,-0.104059 -1.269973,0.252949 -1.886907,0.417879 C 17.479812,8.5717399 17.600633,7.4090089 17.430329,6.2714181 17.106372,4.4264509 15.628359,2.9100006 13.855161,2.379993 13.252341,2.1927786 12.619667,2.1078641 11.989029,2.1127251 Z"
     id="path4339" />
</svg>

<svg xmlns="http://www.w3.org/2000/svg" width="24" height="24" fill="none" viewBox="0 0 24 24"><path d="M11.989 2.113c-1.595-.012-3.22.606-4.27 1.833-.933.989-1.286 2.391-1.239 3.723-.004.684.005 1.368.007 2.052-.653-.163-1.316-.618-2.008-.393-.59.176-.836.947-.48 1.442.384.503.98.79 1.478 1.164.244.2.575.344.757.601 0 .617-.323 1.189-.63 1.709-.746 1.176-1.912 2.075-3.16 2.696-.32.138-.613.554-.33.868.515.484 1.243.639 1.893.867.272.085.677.179.651.546.045.39.294.81.732.812 1.05.121 2.172.07 3.113.633.922.535 1.872 1.132 2.967 1.197 1.092.103 2.217-.118 3.153-.702.697-.385 1.377-.865 2.194-.943.687-.161 1.427-.02 2.091-.277.426-.183.368-.7.547-1.043.338-.234.77-.26 1.146-.415.491-.196 1.11-.347 1.369-.857.153-.406-.309-.628-.594-.785-1.518-.785-2.884-1.994-3.483-3.633-.066-.26-.304-.646.011-.836.66-.558 1.522-.879 2.069-1.566.414-.519.125-1.41-.552-1.512-.657-.104-1.27.253-1.887.417-.054-1.14.067-2.302-.104-3.44-.324-1.845-1.802-3.361-3.575-3.891a6.14 6.14 0 0 0-1.866-.267" style="display:inline;fill:#000;fill-opacity:1;stroke:none;stroke-width:.0971193;stroke-linecap:round;stroke-miterlimit:0;stroke-opacity:.664336"/></svg>
